src/assets/duotone/ClipboardText.svg

<svg width="24" height="24" viewBox="0 0 24 24"  xmlns="http://www.w3.org/2000/svg">
<path opacity="0.4" d="M16.24 3.65039H7.76004C5.29004 3.65039 3.29004 5.66039 3.29004 8.12039V17.5304C3.29004 19.9904 5.30004 22.0004 7.76004 22.0004H16.23C18.7 22.0004 20.7 19.9904 20.7 17.5304V8.12039C20.71 5.65039 18.7 3.65039 16.24 3.65039Z" />
<path d="M14.3498 2H9.64977C8.60977 2 7.75977 2.84 7.75977 3.88V4.82C7.75977 5.86 8.59977 6.7 9.63977 6.7H14.3498C15.3898 6.7 16.2298 5.86 16.2298 4.82V3.88C16.2398 2.84 15.3898 2 14.3498 2Z" />
<path d="M15 12.9502H8C7.59 12.9502 7.25 12.6102 7.25 12.2002C7.25 11.7902 7.59 11.4502 8 11.4502H15C15.41 11.4502 15.75 11.7902 15.75 12.2002C15.75 12.6102 15.41 12.9502 15 12.9502Z" />
<path d="M12.38 16.9502H8C7.59 16.9502 7.25 16.6102 7.25 16.2002C7.25 15.7902 7.59 15.4502 8 15.4502H12.38C12.79 15.4502 13.13 15.7902 13.13 16.2002C13.13 16.6102 12.79 16.9502 12.38 16.9502Z" />
</svg>

<?xml version="1.0" encoding="UTF-8"?>
<svg width="24" height="24" viewBox="0 0 24 24" xmlns="http://www.w3.org/2000/svg">
 <path d="m16.24 3.6504h-8.48c-2.47 0-4.47 2.01-4.47 4.47v9.41c0 2.46 2.01 4.47 4.47 4.47h8.47c2.47 0 4.47-2.01 4.47-4.47v-9.41c0.01-2.47-2-4.47-4.46-4.47z" opacity=".4"/>
 <path d="m14.35 2h-4.7c-1.04 0-1.89 0.84-1.89 1.88v0.94c0 1.04 0.84 1.88 1.88 1.88h4.71c1.04 0 1.88-0.84 1.88-1.88v-0.94c0.01-1.04-0.84-1.88-1.88-1.88z"/>
 <path d="m15 12.95h-7c-0.41 0-0.75-0.34-0.75-0.75s0.34-0.75 0.75-0.75h7c0.41 0 0.75 0.34 0.75 0.75s-0.34 0.75-0.75 0.75z"/>
 <path d="m12.38 16.95h-4.38c-0.41 0-0.75-0.34-0.75-0.75s0.34-0.75 0.75-0.75h4.38c0.41 0 0.75 0.34 0.75 0.75s-0.34 0.75-0.75 0.75z"/>
</svg>
